!!!COM:	Agricola, Alexander
!!!CDT:	~1446-1506/08/15
!!!OPR:	Missa Malheur me bat
!!!ONM:	4
!!!OTL:	Sanctus
!!!AGN:	Mass; Sanctus
!!!SCT:	Agr1004d
!!!SCA:	Agr1004d
!!!voices:	4
!!!voices-OPR:	4
**kern	**kern	**kern	**kern
*staff4	*staff3	*staff2	*staff1
*Ivox	*Ivox	*Ivox	*Ivox
*I"Bassus	*I"Tenor	*I"Altus	*I"Superius
*I'B	*I'T	*I'A	*I'S
*>[A,B,C,D,C]	*>[A,B,C,D,C]	*>[A,B,C,D,C]	*>[A,B,C,D,C]
*>A	*>A	*>A	*>A
*clefF4	*clefGv2	*clefGv2	*clefG2
*k[]	*k[]	*k[]	*k[]
*M3/1	*M3/1	*M3/1	*M3/1
*met(O)	*met(O)	*met(O)	*met(O)
!!section: Sanctus
!!!OMD: Sanctus
=1-	=1-	=1-	=1-
0.r	0.r	[0.E	1.e
.	.	.	2c
.	.	.	1c
=2	=2	=2	=2
1.E	0.r	0.E]	1.g
2C	.	.	2e
1C	.	.	1e
=3	=3	=3	=3
1.G	0.r	1E	1.b
.	.	0B	.
2E	.	.	2g
1E	.	.	1g
=4	=4	=4	=4
1.C	0.r	0.c	1.g
2AA	.	.	1a
1AA	.	.	.
.	.	.	4g
.	.	.	4f
=5	=5	=5	=5
0E	0.r	1B	2.g
.	.	.	4f
.	.	1G	4e
.	.	.	4d
.	.	.	1e
1F	.	1A	.
.	.	.	2d
=6	=6	=6	=6
2C	0.r	1G	2e
4BB	.	.	4d
2C	.	.	2e
.	.	1E	.
8BBL	.	.	8dL
8AAJ	.	.	8cJ
2GG	.	.	2B
1FF	.	1F	1A
=7	=7	=7	=7
1C	0.r	2.E	0.r
.	.	4F	.
2BB-	.	2G	.
2AA	.	1A	.
1BB-i	.	.	.
.	.	2G	.
=8	=8	=8	=8
1AA	0.r	2A	2.e
.	.	1c	.
.	.	.	4f
2r	.	.	2g
2F	.	2A	2.a
1G	.	1B	.
.	.	.	4g
.	.	.	2g
=9	=9	=9	=9
2D	0.r	2A	4r
.	.	.	4f
2E	.	4r	2g
.	.	4G	.
2D	.	2A	4r
.	.	.	4f
2E	.	4r	2g
.	.	4G	.
2D	.	2A	4r
.	.	.	4f
2C	.	4r	2e
.	.	4c	.
=10	=10	=10	=10
4r	0.r	2B	2d
4G	.	.	.
4F	.	2A	2f
8EL	.	.	.
8DJ	.	.	.
2C	.	2c	4e
.	.	.	8dL
.	.	.	8cJ
4r	.	4B	2d
4G	.	4A	.
4F	.	2A	2.r
8EL	.	.	.
8DJ	.	.	.
2E	.	2G	.
.	.	.	4g
=11	=11	=11	=11
2D	0.r	4r	4f
.	.	4d	8eL
.	.	.	8dJ
4r	.	4c	2e
4A	.	8BL	.
.	.	8AJ	.
4G	.	2B	2r
8FL	.	.	.
8EJ	.	.	.
2F	.	2A	4r
.	.	.	4a
2E	.	4r	4g
.	.	4e	8fL
.	.	.	8eJ
2r	.	4d	2f
.	.	8cL	.
.	.	8BJ	.
=12	=12	=12	=12
2AA	0.r	2c	2e
2GG	.	2B	2.g
1C	.	2.e	.
.	.	.	4c
.	.	.	2c
.	.	4d	.
2C	.	4c	4A
.	.	8BL	4c
.	.	8AJ	.
4BB	.	2G	4d
[4C	.	.	[4e
=13	=13	=13	=13
4C]	0.r	2C	4e]
4D	.	.	8dL
.	.	.	8cJ
2E	.	2G	2B
1F	.	1A	2A
.	.	.	1a
1E	.	1B	.
.	.	.	2g#i
=14	=14	=14	=14
0AA	0.E	2A	1a
.	.	1c	.
.	.	.	2.a
.	.	2.C	.
.	.	.	8gL
.	.	.	8fJ
1C	.	.	1e
.	.	4D	.
.	.	4E	.
.	.	4F	.
=15	=15	=15	=15
0GG	0.B	0.G	1.d
.	.	.	2d
1GG	.	.	1d
=16	=16	=16	=16
2.C	0.c	2E	2.e
.	.	2.G	.
4D	.	.	4f
2E	.	.	2g
.	.	2E	.
2AA	.	.	2a
.	.	4F	.
1C	.	4E	2g
.	.	2C	.
.	.	.	2e
.	.	[4G	.
=17	=17	=17	=17
1G	0.B	4G]	1d
.	.	4G	.
.	.	2G	.
2G	.	2.E	1.g
2.E	.	.	.
.	.	4F	.
.	.	1G	.
4F	.	.	.
2G	.	.	2e
=18	=18	=18	=18
1C	0G	0E	2.e
.	.	.	8dL
.	.	.	8cJ
1r	.	.	2B
.	.	.	1e
1r	1A	1F	.
.	.	.	2d
=19	=19	=19	=19
1C	1G	1E	1e
2.C	0E	0G	2.e
8BBL	.	.	8dL
8AAJ	.	.	8cJ
1GG	.	.	1B
=20	=20	=20	=20
0FF	0.F	0c	0.A
2r	.	1c	.
2FF	.	.	.
=21	=21	=21	=21
2GG	1.E	2.c	2G
1.AA	.	.	1.c
.	.	4B	.
.	.	2.A	.
.	1.F	.	.
.	.	4G	.
[1BB	.	4F	[1d
.	.	4E	.
.	.	2D	.
=22	=22	=22	=22
2BB]	1.G	2d	2d]
1.C	.	4c	1.e
.	.	8BL	.
.	.	8AJ	.
.	.	4G	.
.	.	4.c	.
.	1.A	.	.
.	.	8BL	.
.	.	8A	.
.	.	8GJ	.
2D	.	4F	2f
.	.	4D	.
2AA	.	2C	4e
.	.	.	[4c
=23	=23	=23	=23
2r	2E	2G	4c]
.	.	.	4g
2D	2F	4.A	4f
.	.	.	2a
.	.	8B	.
4C	2G	2c	.
4E	.	.	2g
2D	2A	2d	.
.	.	.	4f
2C	2E	2e	2g
2FF	2F	2c	2a
=24	=24	=24	=24
2r	2G	2B	2g
2D	1A	2A	2.f
2AA	.	2c	.
.	.	.	4e
2C	2G	2c	1e
2.D	1F	4B	.
.	.	2A	.
.	.	.	2d
8EL	.	4A	.
8FJ	.	.	.
=25	=25	=25	=25
2G	[0.El	2B	[0.el
2E	.	1G	.
2.G	.	.	.
.	.	2E	.
4A	.	.	.
1B	.	2.G	.
.	.	4A	.
=26	=26	=26	=26
0.El	0.E]	2B	0.e]
.	.	2c	.
.	.	0Bl	.
!!LO:LB:i:g=z
=27||	=27||	=27||	=27||
*>B	*>B	*>B	*>B
*clefF4	*clefGv2	*clefGv2	*clefG2
*k[]	*k[]	*k[]	*k[]
*M2/1	*M2/1	*M2/1	*M2/1
*met(C|)	*met(C|)	*met(C|)	*met(C|)
!!section: Pleni
!!!OMD: Pleni
0r	0r	0E	2.e
.	.	.	4d
.	.	.	4e
.	.	.	4c
.	.	.	[2g
=28	=28	=28	=28
0r	0r	0B	4g]
.	.	.	4f
.	.	.	4g
.	.	.	4e
.	.	.	[1b
=29	=29	=29	=29
0r	0r	0c	2b]
.	.	.	4a
.	.	.	4g
.	.	.	1a
=30	=30	=30	=30
0r	0r	1B	0b
.	.	1G	.
=31	=31	=31	=31
2.AA	0r	0A	[0cc
4GG	.	.	.
4AA	.	.	.
4FF	.	.	.
[2C	.	.	.
=32	=32	=32	=32
4C]	0r	1G	1cc]
4BB	.	.	.
4C	.	.	.
4AA	.	.	.
[1E	.	1E	1b
=33	=33	=33	=33
2E]	0r	0F	0a
4D	.	.	.
4C	.	.	.
1D	.	.	.
=34	=34	=34	=34
2.E	0r	2.E	2.g
4D	.	4F	4a
4C	.	2G	2b
4BB	.	.	.
[2AA	.	[2A	[2cc
=35	=35	=35	=35
4AA]	0r	4A]	4cc]
4BB	.	4G	4b
2C	.	2E	2g
2AA	.	2F	2a
2GG	.	2G	2b
=36	=36	=36	=36
2FF	0r	2A	2cc
2G	.	2E	1b
2A	.	1F	.
[2c	.	.	[2a
=37	=37	=37	=37
2c]	0r	0E	2a]
4B	.	.	4g
4A	.	.	4f
1B	.	.	1g
=38	=38	=38	=38
4A	0r	0r	2.a
4G	.	.	.
4F	.	.	.
4E	.	.	4g
2D	.	.	2f
2C	.	.	[2e
=39	=39	=39	=39
2AA	0r	0r	2e]
1A	.	.	4d
.	.	.	4c
.	.	.	1B
2G#i	.	.	.
=40	=40	=40	=40
1.A	0r	[0e	0A
[2c	.	.	.
=41	=41	=41	=41
2c]	0r	1e]	0r
4B	.	.	.
4A	.	.	.
2B	.	1d	.
2G	.	.	.
=42	=42	=42	=42
1A	0r	1.c	0r
1F	.	.	.
.	.	4B	.
.	.	4A	.
=43	=43	=43	=43
1.E	0r	0G	1r
.	.	.	1g
4D	.	.	.
4E	.	.	.
=44	=44	=44	=44
1F	0r	1r	1a
1E	.	1G	1b
=45	=45	=45	=45
1AA	0r	1A	1cc
1E	.	1B	2b
.	.	.	[2g
=46	=46	=46	=46
0r	0r	1c	2g]
.	.	.	2a
.	.	2B	1b
.	.	[2G	.
=47	=47	=47	=47
0r	0r	2G]	1e
.	.	2A	.
.	.	1B	2r
.	.	.	[2g
=48	=48	=48	=48
0r	0r	[0E	4g]
.	.	.	4a
.	.	.	1b
.	.	.	2cc
=49	=49	=49	=49
0r	0r	1E]	2b
.	.	.	1cc
.	.	1F	.
.	.	.	4b
.	.	.	4a
=50	=50	=50	=50
0r	0r	2E	2.g
.	.	2.e	.
.	.	.	4a
.	.	.	2b
.	.	4d	.
.	.	4c	[2cc
.	.	4B	.
=51	=51	=51	=51
0r	0r	2A	2cc]
.	.	2G	1b
.	.	1c	.
.	.	.	2a
=52	=52	=52	=52
0r	0r	2B	2b
.	.	2.e	2.cc
.	.	4d	4b
.	.	2f	[2dd
=53	=53	=53	=53
0r	0r	2e	4dd]
.	.	.	4cc
.	.	2c	1cc
.	.	1d	.
.	.	.	2b
=54	=54	=54	=54
0r	0r	1c	1cc
.	.	2B	1r
.	.	2c	.
=55	=55	=55	=55
0r	0r	1A	2r
.	.	.	2cc
.	.	2G	2b
.	.	2A	2cc
=56	=56	=56	=56
2c	0r	2F	2.a
2B	.	2G	.
.	.	.	4g
2c	.	2C	1g
[2A	.	[2D	.
=57	=57	=57	=57
2A]	0r	2D]	2f
1G	.	2E	2g
.	.	1r	2.e
2F	.	.	.
.	.	.	4d
=58	=58	=58	=58
2G	0r	0r	1d
1E	.	.	.
.	.	.	2c
[2D	.	.	2d
=59	=59	=59	=59
2D]	0r	0r	2.B
2C	.	.	.
.	.	.	4A
2D	.	.	1A
[2BB	.	.	.
=60	=60	=60	=60
2BB]	0r	0r	2G
1AA	.	.	2A
.	.	.	2c
2GG	.	.	2B
=61	=61	=61	=61
2AA	0r	0r	1A
2C	.	.	.
2BB	.	.	2d
2AA	.	.	[2c
=62	=62	=62	=62
2E	0r	0r	4c]
.	.	.	4d
2C	.	.	2e
2D	.	.	2f
2E	.	.	[2e
=63	=63	=63	=63
2G	0r	2r	2e]
2F	.	1c	2a
2E	.	.	2g
[2D	.	2f	2a
=64	=64	=64	=64
2D]	0r	2d	2b
2C	.	2e	1cc
1F	.	2c	.
.	.	2d	4b
.	.	.	4a
=65	=65	=65	=65
[0E	0r	1.e	0g
.	.	4d	.
.	.	4c	.
=66	=66	=66	=66
0E_	0r	4d	1r
.	.	4c	.
.	.	4B	.
.	.	4A	.
.	.	4G	[1g
.	.	4A	.
.	.	4B	.
.	.	4c	.
=67	=67	=67	=67
0E_	0r	2B	1g]
.	.	2E	.
.	.	2.e	1g
.	.	8dL	.
.	.	8cJ	.
=68	=68	=68	=68
0E]	0r	4B	0g
.	.	4A	.
.	.	2c	.
.	.	1B	.
=69	=69	=69	=69
0F	0r	2r	0a
.	.	2.A	.
.	.	4B	.
.	.	4c	.
.	.	4d	.
=70	=70	=70	=70
2r	0r	1e	1.g
2.E	.	.	.
.	.	1r	.
4F	.	.	.
4G	.	.	4f
4A	.	.	4e
=71	=71	=71	=71
1B	0r	2r	0d
.	.	2.G	.
1r	.	.	.
.	.	4A	.
.	.	4B	.
.	.	4c	.
=72	=72	=72	=72
2r	0r	1d	1.f
2.D	.	.	.
.	.	1r	.
4E	.	.	.
4F	.	.	4e
4G	.	.	4d
=73	=73	=73	=73
1A	0r	2r	0c
.	.	2.F	.
2r	.	.	.
.	.	4G	.
[2C	.	4A	.
.	.	4B	.
=74	=74	=74	=74
4C]	0r	2c	1e
4D	.	.	.
4E	.	1c	.
4F	.	.	.
1G	.	.	1d
.	.	2B	.
=75	=75	=75	=75
1C	0r	1c	1c
[1D	.	1A	2r
.	.	.	[2f
=76	=76	=76	=76
2D]	0r	1d	4f]
.	.	.	4g
4C	.	.	4a
4BB	.	.	4b
2AA	.	2c	2cc
2GG	.	2B	[2dd
=77	=77	=77	=77
1AA	0r	1c	4dd]
.	.	.	4cc
.	.	.	1cc
1GG	.	1d	.
.	.	.	2b
=78	=78	=78	=78
1C	0r	2.c	1cc
.	.	4B	.
2D	.	2A	1r
[2E	.	[2G	.
=79	=79	=79	=79
2E]	0r	2G]	1c
4D	.	4F	.
4C	.	4E	.
2BB	.	2D	2d
[2C	.	2C	[2e
=80	=80	=80	=80
2C]	0r	1c	2e]
4BB	.	.	4d
4AA	.	.	4c
2GG	.	2d	2B
[2C	.	[2e	[2c
=81	=81	=81	=81
2C]	0r	2e]	4c]
.	.	.	4d
4BB	.	4d	4e
4AA	.	4c	4f
2GG	.	2B	2g
[2FF	.	[2c	[2a
=82	=82	=82	=82
4FF]	0r	2c]	2a]
4GG	.	.	.
4AA	.	4B	4g
4BB	.	4A	4f
2C	.	2G	2e
2FF	.	[2A	[2f
=83	=83	=83	=83
1C	0r	4A]	4f]
.	.	4G	4e
.	.	2E	1e
1D	.	1F	.
.	.	.	2d
=84	=84	=84	=84
0AA	0r	1E	0c
.	.	1A	.
=85	=85	=85	=85
1AA	0r	2.A	2.c
.	.	4B	4d
2r	.	[1c	4e
.	.	.	4f
[2AA	.	.	[2e
=86	=86	=86	=86
4AA]	0r	2c]	2e]
4BB	.	.	.
4C	.	4B	4d
4D	.	4A	4c
2E	.	2G	2B
[2F	.	2A	[2A
=87	=87	=87	=87
2F]	0r	2c	2A]
2D	.	2d	1a
1E	.	1B	.
.	.	.	2g
=88	=88	=88	=88
2D	0r	2f	4a
.	.	.	4b
2C	.	4e	4cc
.	.	4f	4dd
4BB	.	4e	2cc
4AA	.	8dL	.
.	.	8cJ	.
2GG	.	2d	[2b
=89	=89	=89	=89
1AA	0r	4c	4b]
.	.	4A	4a
.	.	2c	1a
1E	.	1B	.
.	.	.	2g#i
=90	=90	=90	=90
0AAl	0r	0Al	0al
!!LO:LB:i:g=z
=91||	=91||	=91||	=91||
*>C	*>C	*>C	*>C
*clefF4	*clefGv2	*clefGv2	*clefG2
*k[]	*k[]	*k[]	*k[]
*M2/1	*M2/1	*M2/1	*M2/1
*met(C|)	*met(C|)	*met(C|)	*met(C|)
!!section: Osanna in excelsis
!!!OMD: Osanna in excelsis
[0C	[0e	[0c	[0g
=92	=92	=92	=92
0C]	0e]	1.c]	0g]
.	.	2d	.
=93	=93	=93	=93
[0C	[0c	[0e	[0g
=94	=94	=94	=94
1.C]	0c]	1.e]	1.g]
4BB	.	2f	2a
4AA	.	.	.
=95	=95	=95	=95
[0GG	[0d	1g	[0b
.	.	2r	.
.	.	[2G	.
=96	=96	=96	=96
0GG]	0d]	2G]	0b]
.	.	4F	.
.	.	4E	.
.	.	2D	.
.	.	[2G	.
=97	=97	=97	=97
0C	[0e	2G]	0g
.	.	2E	.
.	.	[1E	.
=98	=98	=98	=98
0AA	0e]	2E]	[0cc
.	.	2C	.
.	.	[1C	.
=99	=99	=99	=99
0FF	1r	1C]	0cc]
.	1A	1F	.
=100	=100	=100	=100
1GG	1B	2D	1.b
.	.	1G	.
[1AA	[1c	.	.
.	.	4F	4a
.	.	4E	4g
=101	=101	=101	=101
1AA]	1c]	1F	1a
[1GG	1B	1G	[1b
=102	=102	=102	=102
1GG]	0G	1d	1b]
[1C	.	[1e	[1cc
=103	=103	=103	=103
2C]	1A	2e]	1cc]
4BB	.	4d	.
4AA	.	4c	.
1GG	[1B	2d	1b
.	.	2B	.
=104	=104	=104	=104
2r	1B]	2.d	2.g
2.G	.	.	.
.	.	4c	4a
.	[1E	4B	1b
4F	.	4A	.
4E	.	[2G	.
4D	.	.	.
=105	=105	=105	=105
1.C	1E]	4G]	1e
.	.	4F	.
.	.	4E	.
.	.	4D	.
.	[1e	2E	1g
2BB	.	2D	.
=106	=106	=106	=106
1AA	2e]	1C	2a
.	4d	.	1cc
.	4c	.	.
1GG	1d	1G	.
.	.	.	2b
=107	=107	=107	=107
1r	1c	2A	2cc
.	.	2F	1a
1GG	1B	2G	.
.	.	[2d	[2g
=108	=108	=108	=108
0D	0A	2d]	2g]
.	.	4c	4f
.	.	4B	4e
.	.	2A	1f
.	.	2d	.
=109	=109	=109	=109
1.E	1.G	1B	1.g
.	.	1c	.
2F	2A	.	4f
.	.	.	4e
=110	=110	=110	=110
1G	1B	2B	1d
.	.	1G	.
1C	1c	.	1c
.	.	[2c	.
=111	=111	=111	=111
1G	1B	2c]	1r
.	.	2B	.
[1C	[1e	1c	[1cc
=112	=112	=112	=112
1C]	2e]	1e	2cc]
.	2d	.	2b
1G	1B	1d	[1b
=113	=113	=113	=113
1E	0c	2.e	1b]
.	.	4d	.
1F	.	4c	1a
.	.	4B	.
.	.	2A	.
=114	=114	=114	=114
1G	1B	2G	1b
.	.	2.E	.
[1C	[1e	.	[1cc
.	.	4F	.
.	.	4G	.
.	.	4A	.
=115	=115	=115	=115
1C]	2e]	2G	2cc]
.	2d	4F	2b
.	.	4E	.
1BB	1f	1D	[1dd
=116	=116	=116	=116
1C	1e	0C	2dd]
.	.	.	2cc
1AA	1c	.	[1cc
=117	=117	=117	=117
0GG	0d	1.G	1cc]
.	.	.	1b
.	.	2F	.
=118	=118	=118	=118
0C	1r	1G	0cc
.	[1c	1E	.
=119	=119	=119	=119
0r	1c]	0D	0r
.	1B	.	.
=120	=120	=120	=120
0r	1c	0C	1r
.	[1A	.	[1cc
=121	=121	=121	=121
0r	1A]	1c	1cc]
.	1G	1d	1b
=122	=122	=122	=122
0AA	1A	1c	1cc
.	1c	[1e	[1a
=123	=123	=123	=123
0E	0B	1e]	1a]
.	.	1e	1g
=124	=124	=124	=124
1F	0A	1.c	1a
2C	.	.	1cc
2F	.	4B	.
.	.	4A	.
=125	=125	=125	=125
2G	1r	2G	2b
1A	.	2F	1cc
.	[1e	2.A	.
4G	.	.	4b
4F	.	4B	4a
=126	=126	=126	=126
1E	1e]	2c	2g
.	.	2.c	2e
1r	1d	.	2f
.	.	4B	.
.	.	4B	4e
.	.	4A	4d
=127	=127	=127	=127
2r	1c	1c	1e
1c	.	.	.
.	[1e	1C	2.g
4B	.	.	.
4A	.	.	4a
=128	=128	=128	=128
2G	1e]	1r	2b
2A	.	.	1cc
1F	1d	1A	.
.	.	.	4b
.	.	.	4a
=129	=129	=129	=129
[0E	1.e	1B	[0g
.	.	2c	.
.	4d	2B	.
.	4c	.	.
=130	=130	=130	=130
0E_	2B	2.G	0g_
.	2c	.	.
.	.	4A	.
.	2B	2B	.
.	[2G	2E	.
=131	=131	=131	=131
0E_	4G]	2r	0g_
.	4A	.	.
.	2B	1e	.
.	2E	.	.
.	[2e	4d	.
.	.	4c	.
=132	=132	=132	=132
0E]	2e]	1B	0g]
.	4d	.	.
.	4c	.	.
.	1B	2.e	.
.	.	4d	.
=133	=133	=133	=133
1.A	1A	4c	0a
.	.	4B	.
.	.	1c	.
.	1c	.	.
4G	.	4B	.
4F	.	4A	.
=134	=134	=134	=134
2E	0r	2G	0r
2F	.	2A	.
2E	.	2G	.
[2C	.	[2E	.
=135	=135	=135	=135
4C]	0r	4E]	0r
4D	.	4F	.
2E	.	2G	.
2AA	.	2A	.
[2A	.	[2c	.
=136	=136	=136	=136
2A]	0r	4c]	1r
.	.	4B	.
4G	.	1d	.
4F	.	.	.
1E	.	.	1g
.	.	2c#i	.
=137	=137	=137	=137
1.D	1r	1d	1.f
.	1d	[1A	.
4C	.	.	4e
4BB	.	.	4d
=138	=138	=138	=138
0AA	1.e	1A]	0c
.	.	1A	.
.	4d	.	.
.	4c	.	.
=139	=139	=139	=139
0r	1B	2G	1.g
.	.	1E	.
.	[1c	.	.
.	.	[2C	2f
=140	=140	=140	=140
0r	2c]	4C]	1e
.	.	4D	.
.	4B	4E	.
.	4A	4F	.
.	1B	1G	1d
=141	=141	=141	=141
1.AA	0E	1A	1.c
.	.	[1c	.
2BB	.	.	2d
=142	=142	=142	=142
1.C	0E	2c]	2e
.	.	4B	2f
.	.	4A	.
.	.	2.G	[1g
2D	.	.	.
.	.	4F	.
=143	=143	=143	=143
1E	0E	2E	2g]
.	.	2C	2f
1C	.	1c	[1e
=144	=144	=144	=144
0D	0F	1.A	2e]
.	.	.	4d
.	.	.	4c
.	.	.	1d
.	.	2B	.
=145	=145	=145	=145
0AA	[0El	0c	[0el
=146	=146	=146	=146
1GG	0E_	1B	0e_
[1AA	.	[1c	.
=147	=147	=147	=147
1AA]	0E_	1c]	0e_
2GG	.	2B	.
2FF	.	2A	.
=148	=148	=148	=148
[0EEl	0E_	1.G	0e_
.	.	2A	.
=149	=149	=149	=149
0EE]	0E]	0Bl	0e]
!!LO:LB:i:g=z
!!LO:TX:rj:i:t=fine
=150||	=150||	=150||	=150||
*>D	*>D	*>D	*>D
*clefF4	*clefGv2	*clefGv2	*clefG2
*k[]	*k[]	*k[]	*k[]
*M2/1	*M2/1	*M2/1	*M2/1
*met(C|)	*met(C|)	*met(C|)	*met(C|)
!!section: Benedictus
!!!OMD: Benedictus
0r	0r	0E	0r
=151	=151	=151	=151
0r	0r	1.E	0r
.	.	2F	.
=152	=152	=152	=152
0r	0r	1G	0e
.	.	[1A	.
=153	=153	=153	=153
0r	0r	2A]	1.e
.	.	2B	.
.	.	1c	.
.	.	.	2f
=154	=154	=154	=154
0r	0r	1B	1g
.	.	1A	[1a
=155	=155	=155	=155
0r	0r	1F	1a]
.	.	1G	1b
=156	=156	=156	=156
0r	0r	2E	0cc
.	.	2.C	.
.	.	4D	.
.	.	4E	.
.	.	4F	.
=157	=157	=157	=157
0r	0r	0G	1b
.	.	.	[1dd
=158	=158	=158	=158
0r	0r	0A	2dd]
.	.	.	1cc
.	.	.	4b
.	.	.	4a
=159	=159	=159	=159
0r	0r	1B	2.g
.	.	.	4a
.	.	[1G	4b
.	.	.	4cc
.	.	.	[2b
=160	=160	=160	=160
0r	0r	1G]	2b]
.	.	.	2.e
.	.	1c	.
.	.	.	4f
.	.	.	4g
.	.	.	4a
=161	=161	=161	=161
0r	0r	2B	1g
.	.	2.e	.
.	.	.	2.c
.	.	4d	.
.	.	4c	.
.	.	4B	4d
=162	=162	=162	=162
0r	0r	2c	4e
.	.	.	4f
.	.	4B	1e
.	.	4A	.
.	.	2G	.
.	.	[2c	[2A
=163	=163	=163	=163
0r	0r	4c]	4A]
.	.	4B	4B
.	.	4A	4c
.	.	4G	4d
.	.	2A	2c
.	.	4G	4B
.	.	4F	4A
=164	=164	=164	=164
0r	0r	2E	2c
.	.	2G	1B
.	.	2A	.
.	.	2c	[2A
=165	=165	=165	=165
0r	0r	1B	2A]
.	.	.	2g
.	.	2.A	4a
.	.	.	4b
.	.	.	4cc
.	.	4G	4dd
=166	=166	=166	=166
0r	0r	4A	4cc
.	.	4B	4b
.	.	4c	4a
.	.	4d	4g
.	.	4e	2cc
.	.	4f	.
.	.	[2d	[2b
=167	=167	=167	=167
0r	0r	4d]	4b]
.	.	4e	4a
.	.	2c	1a
.	.	1B	.
.	.	.	2g#i
=168	=168	=168	=168
0r	0r	0A	[0a
=169	=169	=169	=169
0r	0r	0r	0a]
=170	=170	=170	=170
0r	0r	0E	0r
=171	=171	=171	=171
0r	0r	0B	0r
=172	=172	=172	=172
0r	0r	0c	0e
=173	=173	=173	=173
0r	0r	2.B	0b
.	.	4c	.
.	.	2d	.
.	.	[2e	.
=174	=174	=174	=174
0r	0r	4e]	0cc
.	.	4d	.
.	.	4c	.
.	.	4B	.
.	.	4A	.
.	.	4G	.
.	.	2A	.
=175	=175	=175	=175
0r	0r	2r	1b
.	.	4G	.
.	.	4F	.
.	.	4E	1g
.	.	4D	.
.	.	2E	.
=176	=176	=176	=176
0r	0r	2r	0a
.	.	4F	.
.	.	4E	.
.	.	4D	.
.	.	4C	.
.	.	2D	.
=177	=177	=177	=177
0r	0r	2.E	2.g
.	.	4F	4a
.	.	2G	2b
.	.	2A	[2e
=178	=178	=178	=178
0r	0r	2r	4e]
.	.	.	4f
.	.	2E	2g
.	.	2F	2a
.	.	2G	2e
=179	=179	=179	=179
0r	0r	2.A	2f
.	.	.	1e
.	.	4B	.
.	.	2c	.
.	.	[2d	2d
=180	=180	=180	=180
0r	0r	2d]	1e
.	.	2c#i	.
.	.	1d	1r
=181	=181	=181	=181
0r	0r	2r	1b
.	.	1e	.
.	.	.	1g
.	.	[2c	.
=182	=182	=182	=182
0r	0r	2c]	1a
.	.	1d	.
.	.	.	1b
.	.	[2e	.
=183	=183	=183	=183
0r	0r	2e]	[0cc
.	.	2f	.
.	.	2e	.
.	.	[2c	.
=184	=184	=184	=184
0r	0r	4c]	0cc]
.	.	4d	.
.	.	2e	.
.	.	1A	.
=185	=185	=185	=185
0r	0r	1r	1b
.	.	1B	[1g
=186	=186	=186	=186
0r	0r	1c	2g]
.	.	.	2a
.	.	2B	1b
.	.	[2G	.
=187	=187	=187	=187
0r	0r	2G]	1e
.	.	2A	.
.	.	2.B	2r
.	.	.	[2B
.	.	4c	.
=188	=188	=188	=188
0r	0r	2d	2B]
.	.	2e	2c
.	.	2d	2B
.	.	[2c	[2e
=189	=189	=189	=189
0r	0r	2c]	2e]
.	.	4B	4d
.	.	4A	4c
.	.	4B	4d
.	.	4A	4c
.	.	4G	4B
.	.	4F	4A
=190	=190	=190	=190
0r	0r	2E	2.G
.	.	2B	.
.	.	.	4A
.	.	2G	2B
.	.	2A	[2c
=191	=191	=191	=191
0r	0r	1B	2c]
.	.	.	1B
.	.	1c	.
.	.	.	2A
=192	=192	=192	=192
0r	0r	1d	2.B
.	.	.	4c
.	.	1G	2d
.	.	.	[2e
=193	=193	=193	=193
0r	0r	1F	2e]
.	.	.	2d
.	.	1E	2.e
.	.	.	4f
=194	=194	=194	=194
0r	0r	1C	2g
.	.	.	1a
.	.	1BB	.
.	.	.	2g
=195	=195	=195	=195
0r	0r	2AA	2.a
.	.	1A	.
.	.	.	4b
.	.	.	2cc
.	.	2B	[2dd
=196	=196	=196	=196
0r	0r	2c	2dd]
.	.	2e	1cc
.	.	1d	.
.	.	.	2b
=197	=197	=197	=197
0r	0r	1c	1.cc
.	.	1r	.
.	.	.	4b
.	.	.	4a
=198	=198	=198	=198
0r	0r	1.c	1g
.	.	.	1a
.	.	4B	.
.	.	4A	.
=199	=199	=199	=199
0r	0r	1G	2r
.	.	.	2b
.	.	1A	1cc
=200	=200	=200	=200
0r	0r	2r	1b
.	.	2B	.
.	.	1c	2a
.	.	.	[2a
=201	=201	=201	=201
0r	0r	1B	2a]
.	.	.	2g
.	.	2A	2a
.	.	[2A	4g
.	.	.	4f
=202	=202	=202	=202
0r	0r	2A]	1e
.	.	2G	.
.	.	2A	1f
.	.	4G	.
.	.	4F	.
=203	=203	=203	=203
0r	0r	1E	2r
.	.	.	2g
.	.	1F	1a
=204	=204	=204	=204
0r	0r	2r	2g
.	.	2G	2e
.	.	1A	1f
=205	=205	=205	=205
0r	0r	2G	2e
.	.	2E	1e
.	.	1F	.
.	.	.	2d
=206	=206	=206	=206
0r	0r	2E	1e
.	.	1E	.
.	.	.	1r
.	.	2D	.
=207	=207	=207	=207
0r	0r	1E	1.g
.	.	1r	.
.	.	.	4f
.	.	.	4e
=208	=208	=208	=208
0r	0r	1.G	1d
.	.	.	1g
.	.	4F	.
.	.	4E	.
=209	=209	=209	=209
0r	0r	2D	2r
.	.	2E	2g
.	.	2F	2a
.	.	2G	[2b
=210	=210	=210	=210
0r	0r	1E	2b]
.	.	.	2cc
.	.	2F	1a
.	.	2D	.
=211	=211	=211	=211
0r	0r	2E	2r
.	.	2F	2a
.	.	2G	2b
.	.	2E	[2cc
=212	=212	=212	=212
0r	0r	1F	4cc]
.	.	.	4b
.	.	.	2.dd
.	.	1D	.
.	.	.	4cc
.	.	.	4b
.	.	.	4a
=213	=213	=213	=213
0r	0r	2.E	1g
.	.	4F	.
.	.	2G	2r
.	.	2E	2g
=214	=214	=214	=214
0r	0r	2F	2a
.	.	2G	2.b
.	.	2.E	.
.	.	.	4a
.	.	.	4g
.	.	4F	4f
=215	=215	=215	=215
0r	0r	4G	1e
.	.	4A	.
.	.	1G	.
.	.	.	2r
.	.	4F	2e
.	.	4E	.
=216	=216	=216	=216
0r	0r	2D	2f
.	.	2C	2.g
.	.	[1E	.
.	.	.	4f
.	.	.	4e
.	.	.	4d
=217	=217	=217	=217
0r	0r	2E]	1c
.	.	2F	.
.	.	2G	2B
.	.	[2A	[2c
=218	=218	=218	=218
0r	0r	2A]	2c]
.	.	1G	2B
.	.	.	1A
.	.	2F	.
=219	=219	=219	=219
0r	0r	1G	1G
.	.	1E	2r
.	.	.	[2g
=220	=220	=220	=220
0r	0r	1C	4g]
.	.	.	4f
.	.	.	1e
.	.	[1G	.
.	.	.	4d
.	.	.	4c
=221	=221	=221	=221
0r	0r	2G]	2B
.	.	2A	2.c
.	.	1B	.
.	.	.	4B
.	.	.	2B
=222	=222	=222	=222
0r	0r	2c	2r
.	.	2B	1b
.	.	2G	.
.	.	2A	[2cc
=223	=223	=223	=223
0r	0r	1B	4cc]
.	.	.	4b
.	.	.	1b
.	.	1c	.
.	.	.	2a
=224	=224	=224	=224
0r	0r	1B	2b
.	.	.	1g
.	.	1c	.
.	.	.	4f
.	.	.	4e
=225	=225	=225	=225
0r	0r	2B	2d
.	.	1e	2e
.	.	.	1f
.	.	2d	.
=226	=226	=226	=226
0r	0r	2e	4e
.	.	.	4d
.	.	1c	4e
.	.	.	4f
.	.	.	4g
.	.	.	4a
.	.	4B	4b
.	.	4A	4cc
=227	=227	=227	=227
0r	0r	2G	2b
.	.	2A	1a
.	.	1B	.
.	.	.	2g#i
=228	=228	=228	=228
0r	0r	1A	1a
.	.	1A	2r
.	.	.	2e
=229	=229	=229	=229
0r	0r	2r	2f
.	.	2E	2g
.	.	2F	2a
.	.	2G	4r
.	.	.	4e
=230	=230	=230	=230
0r	0r	2A	2f
.	.	4r	2g
.	.	4E	.
.	.	2F	2a
.	.	2G	4g
.	.	.	4e
=231	=231	=231	=231
0r	0r	2A	2f
.	.	2c	2e
.	.	2B	2d
.	.	[2A	[2f
=232	=232	=232	=232
0r	0r	4A]	4f]
.	.	4G	4e
.	.	2E	1e
.	.	1F	.
.	.	.	2d
=233	=233	=233	=233
0r	0r	0El	0el
!!LO:TX:i:Y=40:rj:t=Osanna ut supra
=||	=||	=||	=||
*-	*-	*-	*-
!!!RDF**kern: l=long note in original notation
!!!RDF**kern: i=editorial accidental
!!!RDF**kern: V=start of tuplet marker
!!!RDF**kern: Z=end of tuplet marker
!!!ENC:	Jesse Rodin; Megan K. Eagen 2013/04/23
!!!END:	2013/04/23/
!!!EED:	Jesse Rodin
!!!EEV:	2013/05/08/
!!!ONB:	Translated from MusicXML and edited on 2013/05/08/ by Craig Sapp
!!muse2ps: T^@{OPR}^u^@{ONM}{. }@{OTL}^C^@{COM}^i2I100v85,90,85,150c100Q16
